**harm	**harte	**timestamp	**phrase	**leadinstrument	**kern
*M4/4	*M4/4	*	*	*	*
*D:	*D:	*	*	*	*D:
1r;	N	0	.	r	1r;
=1	=1	=1	=1	=1	=1
*>A_intro	*>A_intro	*>A_intro	*>A_intro	*>A_intro	*>A_intro
1IV7	G:maj7	2.226	newline	guitar	1G 1b 1dd 1ff#
=2	=2	=2	=2	=2	=2
1I	D:maj6	5.61	.	guitar	1D 1f# 1a
=3	=3	=3	=3	=3	=3
4IV7	G:maj7	8.994	.	guitar	4G 4b 4dd 4ff#
4Ib	D:maj6/3	9.84	.	guitar	4d 4F# 4a
4ii7	E:min7	10.685	.	guitar	4E 4g 4b 4dd
4V	A:sus4(b7)	11.531	.	guitar	4A 4cc# 4ee
=4	=4	=4	=4	=4	=4
2I7	D:maj7	12.377	.	guitar	2D 2f# 2a 2cc#
4ii7	E:min7	14.069	.	guitar	4E 4g 4b 4dd
4V7	A:7	14.915	.	guitar	4A 4cc# 4ee 4gg
=5	=5	=5	=5	=5	=5
*>A_verse	*>A_verse	*>A_verse	*>A_verse	*>A_verse	*>A_verse
1IV7	G:maj7	15.761	newline	voice	1G 1b 1dd 1ff#
=6	=6	=6	=6	=6	=6
1I	D:maj6	19.16	.	voice	1D 1f# 1a
=7	=7	=7	=7	=7	=7
4IV7	G:maj7	22.56	.	voice	4G 4b 4dd 4ff#
4Ib	D:maj6/3	23.409	.	voice	4d 4F# 4a
4ii7	E:min7	24.259	.	voice	4E 4g 4b 4dd
4V	A:sus4(b7)	25.109	.	voice	4A 4cc# 4ee
=8	=8	=8	=8	=8	=8
2I7	D:maj7	25.959	.	voice	2D 2f# 2a 2cc#
4ii7	E:min7	27.658	.	voice	4E 4g 4b 4dd
4V7	A:7	28.508	.	voice	4A 4cc# 4ee 4gg
=9	=9	=9	=9	=9	=9
1IV7	G:maj7	29.358	newline	voice	1G 1b 1dd 1ff#
=10	=10	=10	=10	=10	=10
1I	D:maj6	32.726	.	voice	1D 1f# 1a
=11	=11	=11	=11	=11	=11
4IV7	G:maj7	36.094	.	voice	4G 4b 4dd 4ff#
4Ib	D:maj6/3	36.936	.	voice	4d 4F# 4a
4ii7	E:min7	37.778	.	voice	4E 4g 4b 4dd
4V	A:sus4(b7)	38.621	.	voice	4A 4cc# 4ee
=12	=12	=12	=12	=12	=12
2I7	D:maj7	39.463	.	voice	2D 2f# 2a 2cc#
4ii7	E:min7	41.147	.	voice	4E 4g 4b 4dd
4V7	A:7	41.989	.	voice	4A 4cc# 4ee 4gg
=13	=13	=13	=13	=13	=13
1IV7	G:maj7	42.831	newline	voice	1G 1b 1dd 1ff#
=14	=14	=14	=14	=14	=14
1I	D:maj6	46.242	.	voice	1D 1f# 1a
=15	=15	=15	=15	=15	=15
4IV7	G:maj7	49.653	.	voice	4G 4b 4dd 4ff#
4Ib	D:maj6/3	50.505	.	voice	4d 4F# 4a
4ii7	E:min7	51.358	.	voice	4E 4g 4b 4dd
4V	A:sus4(b7)	52.211	.	voice	4A 4cc# 4ee
=16	=16	=16	=16	=16	=16
2I7	D:maj7	53.064	.	voice	2D 2f# 2a 2cc#
4ii7	E:min7	54.769	.	voice	4E 4g 4b 4dd
4V7	A:7	55.622	.	voice	4A 4cc# 4ee 4gg
=17	=17	=17	=17	=17	=17
1IV7	G:maj7	56.474	newline	voice	1G 1b 1dd 1ff#
=18	=18	=18	=18	=18	=18
1I	D:maj6	59.83	.	voice	1D 1f# 1a
=19	=19	=19	=19	=19	=19
4IV7	G:maj7	63.185	.	voice	4G 4b 4dd 4ff#
4Ib	D:maj6/3	64.024	.	voice	4d 4F# 4a
4ii7	E:min7	64.862	.	voice	4E 4g 4b 4dd
4V	A:sus4(b7)	65.701	.	voice	4A 4cc# 4ee
=20	=20	=20	=20	=20	=20
2I7	D:maj7	66.54	.	voice	2D 2f# 2a 2cc#
4ii7	E:min7	68.218	.	voice	4E 4g 4b 4dd
4V7	A:7	69.056	.	voice	4A 4cc# 4ee 4gg
=21	=21	=21	=21	=21	=21
*>B_chorus	*>B_chorus	*>B_chorus	*>B_chorus	*>B_chorus	*>B_chorus
1IVe	G:maj/2	69.895	newline	voice	1G 1b 1dd
=22	=22	=22	=22	=22	=22
1IVe	G:maj/2	73.297	.	voice	1G 1b 1dd
=23	=23	=23	=23	=23	=23
2I7	D:maj7	76.699	.	voice	2D 2f# 2a 2cc#
2V7	A:7	78.399	.	voice	2A 2cc# 2ee 2gg
=24	=24	=24	=24	=24	=24
1vi7	B:min7	80.1	.	voice	1B 1dd 1ff# 1aa
=25	=25	=25	=25	=25	=25
1ii7	E:min7	83.502	newline	voice	1E 1g 1b 1dd
=26	=26	=26	=26	=26	=26
1V7	A:7	86.949	.	voice	1A 1cc# 1ee 1gg
=27	=27	=27	=27	=27	=27
2I	D:maj6	90.396	.	voice	2D 2f# 2a
2V7b	A:7/3	92.12	.	voice	2a 2C# 2ee 2gg
=28	=28	=28	=28	=28	=28
2.vi7	B:min7	93.844	.	voice	2B 2dd 2ff# 2aa
4III	F#:maj	96.429	.	voice	4F# 4a# 4cc#
=29	=29	=29	=29	=29	=29
1vi7	B:min9	97.291	newline	voice	1B 1dd 1ff# 1aa
=30	=30	=30	=30	=30	=30
2vi7	B:min9	100.713	.	voice	2B 2dd 2ff# 2aa
2II7	E:7	102.425	.	voice	2E 2g# 2b 2dd
=31	=31	=31	=31	=31	=31
2IV7	G:maj7	104.136	.	voice	2G 2b 2dd 2ff#
2vi7	B:min7	105.847	.	voice	2B 2dd 2ff# 2aa
=32	=32	=32	=32	=32	=32
2.ii7	E:min7	107.558	.	voice	2E 2g 2b 2dd
4III	F#:maj	110.125	.	voice	4F# 4a# 4cc#
=33	=33	=33	=33	=33	=33
1vi7	B:min9	110.981	newline	voice	1B 1dd 1ff# 1aa
=34	=34	=34	=34	=34	=34
2vi7	B:min9	114.461	.	voice	2B 2dd 2ff# 2aa
2II7	E:7	116.201	.	voice	2E 2g# 2b 2dd
=35	=35	=35	=35	=35	=35
1IV7	G:maj7	117.941	.	voice	1G 1b 1dd 1ff#
=36	=36	=36	=36	=36	=36
1IVe	G:maj/2	121.421	.	voice	1G 1b 1dd
=37	=37	=37	=37	=37	=37
*>A_verse	*>A_verse	*>A_verse	*>A_verse	*>A_verse	*>A_verse
1IV7	G:maj7	124.901	newline	voice	1G 1b 1dd 1ff#
=38	=38	=38	=38	=38	=38
1I	D:maj6	128.322	.	voice	1D 1f# 1a
=39	=39	=39	=39	=39	=39
4IV7	G:maj7	131.742	.	voice	4G 4b 4dd 4ff#
4Ib	D:maj6/3	132.597	.	voice	4d 4F# 4a
4ii7	E:min7	133.452	.	voice	4E 4g 4b 4dd
4V	A:sus4(b7)	134.307	.	voice	4A 4cc# 4ee
=40	=40	=40	=40	=40	=40
2I7	D:maj7	135.163	.	voice	2D 2f# 2a 2cc#
4ii7	E:min7	136.873	.	voice	4E 4g 4b 4dd
4V7	A:7	137.728	.	voice	4A 4cc# 4ee 4gg
=41	=41	=41	=41	=41	=41
1IV7	G:maj7	138.583	newline	voice	1G 1b 1dd 1ff#
=42	=42	=42	=42	=42	=42
1I	D:maj6	141.951	.	voice	1D 1f# 1a
=43	=43	=43	=43	=43	=43
4IV7	G:maj7	145.319	.	voice	4G 4b 4dd 4ff#
4Ib	D:maj6/3	146.161	.	voice	4d 4F# 4a
4ii7	E:min7	147.003	.	voice	4E 4g 4b 4dd
4V	A:sus4(b7)	147.845	.	voice	4A 4cc# 4ee
=44	=44	=44	=44	=44	=44
2I7	D:maj7	148.687	.	voice	2D 2f# 2a 2cc#
4ii7	E:min7	150.371	.	voice	4E 4g 4b 4dd
4V7	A:7	151.213	.	voice	4A 4cc# 4ee 4gg
=45	=45	=45	=45	=45	=45
*>B_chorus	*>B_chorus	*>B_chorus	*>B_chorus	*>B_chorus	*>B_chorus
1IVe	G:maj/2	152.055	newline	voice	1G 1b 1dd
=46	=46	=46	=46	=46	=46
1IVe	G:maj/2	155.458	.	voice	1G 1b 1dd
=47	=47	=47	=47	=47	=47
2I7	D:maj7	158.862	.	voice	2D 2f# 2a 2cc#
2V7	A:7	160.563	.	voice	2A 2cc# 2ee 2gg
=48	=48	=48	=48	=48	=48
1vi7	B:min7	162.265	.	voice	1B 1dd 1ff# 1aa
=49	=49	=49	=49	=49	=49
2ii7	E:min7	165.669	newline	voice	2E 2g 2b 2dd
2IV	G:maj	167.401	.	voice	2G 2b 2dd
=50	=50	=50	=50	=50	=50
1V7	A:7	169.132	.	voice	1A 1cc# 1ee 1gg
=51	=51	=51	=51	=51	=51
2I	D:maj6	172.596	.	voice	2D 2f# 2a
2V7b	A:7/3	174.328	.	voice	2a 2C# 2ee 2gg
=52	=52	=52	=52	=52	=52
1vi7	B:min7	176.06	.	voice	1B 1dd 1ff# 1aa
=53	=53	=53	=53	=53	=53
2ii7	E:min7	179.524	newline	voice	2E 2g 2b 2dd
2IV	G:maj	181.251	.	voice	2G 2b 2dd
=54	=54	=54	=54	=54	=54
1V7	A:7	182.979	.	voice	1A 1cc# 1ee 1gg
=55	=55	=55	=55	=55	=55
2I	D:maj6	186.434	.	voice	2D 2f# 2a
2V7b	A:7/3	188.161	.	voice	2a 2C# 2ee 2gg
=56	=56	=56	=56	=56	=56
1vi7	B:min7	189.889	.	voice	1B 1dd 1ff# 1aa
=57	=57	=57	=57	=57	=57
*>_fadeout	*>_fadeout	*>_fadeout	*>_fadeout	*>_fadeout	*>_fadeout
2ii7	E:min7	193.344	newline	voice	2E 2g 2b 2dd
2IV	G:maj	195.048	.	voice	2G 2b 2dd
=58	=58	=58	=58	=58	=58
1V7	A:7	196.753	.	voice	1A 1cc# 1ee 1gg
=59	=59	=59	=59	=59	=59
2I	D:maj6	200.162	.	voice	2D 2f# 2a
2V7b	A:7/3	201.867	.	voice	2a 2C# 2ee 2gg
=60	=60	=60	=60	=60	=60
1vi7	B:min7	203.572	.	voice	1B 1dd 1ff# 1aa
=61	=61	=61	=61	=61	=61
2ii7	E:min7	206.981	newline	voice	2E 2g 2b 2dd
2IV	G:maj	207.771	.	voice	2G 2b 2dd
=62	=62	=62	=62	=62	=62
1V7	A:7	208.561	.	voice	1A 1cc# 1ee 1gg
=63	=63	=63	=63	=63	=63
2I	D:maj6	210.14	.	voice	2D 2f# 2a
2V7b	A:7/3	210.93	.	voice	2a 2C# 2ee 2gg
=64	=64	=64	=64	=64	=64
1vi7	B:min7	211.719	.	voice	1B 1dd 1ff# 1aa
1r;	N	213.299	.	r	1r;
1r;	N	216.372	.	r	1r;
*-	*-	*-	*-	*-	*-
!!!OTL: That's The Way I Feel About Cha
!!!COC: Bobby Womack
!!!BillboardChartDate: 1971/12/18
!!!BillboardPeak: 27
!!!BillboardWeeksOnChart: 13
!!!SampleTargetRank: 72
!!!SampleActualRank: 71
!!!SampleID#: 0297
!!!RDF**harmony: **recip + pitch class of root + harmonic quality
!!!RDF**harte: Chris Harte's syntax, used by MIREX
!!!RDF**phrase: newline = linebreak in original McGill transcription
!!!RDF**timestamp: McGill audio timestamp in seconds
!!!RDF**leadinstrument: original McGill primary instrumentation annotation
!!!RDT: 2017/01/12/
!!!ENC: Nathaniel Condit-Schultz
!!!EST: Awating manual error checking and editing.
